app/assets/images/icons/tie.svg

<svg xmlns="http://www.w3.org/2000/svg" width="100" height="100" viewBox="0 0 100 100"><path fill="#EDEDED" d="M50 0c-27.613 0-50 22.386-50 50.001 0 27.613 22.387 49.999 50 49.999 27.614 0 50-22.386 50-49.999 0-27.615-22.386-50.001-50-50.001z"/><path fill="#D5D5D5" d="M44.898 2.999h10.116l9.985 70-15.021 13-14.978-13 9.898-70z"/><path fill="#DAD8D8" d="M50 0c6.169 0 12.967 1.457 18.422 3.5l-18.422 14.509-18.359-14.525c5.455-2.043 12.19-3.484 18.359-3.484z"/><path fill="#E2574C" d="M44.898.999h10.116l9.985 70-15.021 13-14.978-13 9.898-70z"/><path fill="#CB4E44" d="M49.979 83.999l.021-.019v-82.981h-5.102l-9.898 70zm-5.479-25h11c.828 0 1.5.672 1.5 1.5s-.672 1.5-1.5 1.5h-11c-.828 0-1.5-.672-1.5-1.5s.672-1.5 1.5-1.5z"/><path fill="#B6463D" d="M50 58.999h-5.5c-.828 0-1.5.672-1.5 1.5s.672 1.5 1.5 1.5h5.5v-3z"/><path fill="#D15248" d="M43.249 12.667l6.751 5.342 6.689-5.269-1.674-11.741h-10.117z"/><path fill="#BE4B41" d="M44.898.999l-1.649 11.668 6.751 5.342v-17.01z"/><path fill="#EC655B" d="M50 0c6.169 0 12.074 1.124 17.529 3.167l-17.529 13.842-17.529-13.842c5.455-2.043 11.36-3.167 17.529-3.167z"/><path fill="#EFC75E" d="M44.5 57.999h11c.828 0 1.5.672 1.5 1.5s-.672 1.5-1.5 1.5h-11c-.828 0-1.5-.672-1.5-1.5s.672-1.5 1.5-1.5z"/><path fill="#D5D5D5" d="M99.176 40.999h-15.176v5h15.826c-.134-1.692-.351-3.359-.65-5z"/><path fill="#fff" d="M97.721 35.039l-9.801 1.4c-2.249.322-3.92 2.248-3.92 4.521v.039h15.176c-.369-2.031-.849-4.023-1.455-5.96z"/></svg>

<svg xmlns="http://www.w3.org/2000/svg" width="100" height="100" viewBox="0 0 100 100"><path fill="#EDEDED" d="M50 0C22.387 0 0 22.386 0 50.001 0 77.614 22.387 100 50 100c27.614 0 50-22.386 50-49.999C100 22.386 77.614 0 50 0z"/><path fill="#D5D5D5" d="M44.898 2.999h10.116l9.985 70-15.021 13-14.978-13 9.898-70z"/><path fill="#DAD8D8" d="M50 0c6.169 0 12.967 1.457 18.422 3.5L50 18.009 31.641 3.484C37.096 1.441 43.831 0 50 0z"/><path fill="#E2574C" d="M44.898.999h10.116l9.985 70-15.021 13-14.978-13 9.898-70z"/><path fill="#CB4E44" d="M49.979 83.999L50 83.98V.999h-5.102l-9.898 70zm-5.479-25h11a1.5 1.5 0 0 1 0 3h-11a1.5 1.5 0 0 1 0-3z"/><path fill="#B6463D" d="M50 58.999h-5.5a1.5 1.5 0 0 0 0 3H50v-3z"/><path fill="#D15248" d="M43.249 12.667L50 18.009l6.689-5.269L55.015.999H44.898z"/><path fill="#BE4B41" d="M44.898.999l-1.649 11.668L50 18.009V.999z"/><path fill="#EC655B" d="M50 0a49.874 49.874 0 0 1 17.529 3.167L50 17.009 32.471 3.167A49.874 49.874 0 0 1 50 0z"/><path fill="#EFC75E" d="M44.5 57.999h11a1.5 1.5 0 0 1 0 3h-11a1.5 1.5 0 0 1 0-3z"/><path fill="#D5D5D5" d="M99.176 40.999H84v5h15.826a49.821 49.821 0 0 0-.65-5z"/><path fill="#fff" d="M97.721 35.039l-9.801 1.4A4.567 4.567 0 0 0 84 40.96v.039h15.176a49.728 49.728 0 0 0-1.455-5.96z"/></svg>
